X:2705
T:Carrick Jig
C:Andy De Jarlis
M:6/8
L:1/8
K:C
ef|g2 e cBc|a2 f d2 c|Bdg gba|ag_g =gef|!
g2 e cBc|a2 f d2 c|BAB GAB|c4:|!
|:z2|CEG cea|g2 e c2 c|BdB GBd|dcA G2 E|!
CEG cea|g2 e c2 c|BdB GAB|c4:|!


